svg/chevron_right.svg

<svg xmlns="http://www.w3.org/2000/svg" viewBox="0 0 32 32" enable-background="new 0 0 32 32"><path d="M 12.25 2.59375 L 11.53125 3.28125 L 7.9375 6.90625 L 7.25 7.59375 L 7.9375 8.3125 L 15.625 16 L 7.9375 23.6875 L 7.25 24.40625 L 7.9375 25.09375 L 11.53125 28.71875 L 12.25 29.40625 L 12.96875 28.71875 L 24.96875 16.71875 L 25.65625 16 L 24.96875 15.28125 L 12.96875 3.28125 L 12.25 2.59375 z M 12.25 5.4375 L 22.8125 16 L 12.25 26.5625 L 10.0625 24.375 L 17.75 16.71875 L 18.46875 16 L 17.75 15.28125 L 10.0625 7.625 L 12.25 5.4375 z" color="#000" overflow="visible" enable-background="accumulate"/></svg>

<svg xmlns="http://www.w3.org/2000/svg" viewBox="0 0 32 32"><path d="M12.25 2.594l-.72.687L7.94 6.907l-.688.688.688.718L15.625 16l-7.688 7.688-.687.718.688.688 3.593 3.625.72.686.72-.687 12-12 .686-.72-.687-.72-12-12-.72-.686zm0 2.844L22.813 16 12.25 26.563l-2.188-2.188 7.688-7.656.72-.72-.72-.72-7.688-7.655 2.188-2.188z"/></svg>
